X:1
T:Ave Maria
T:J. Haydn
T:Ave Maria
C:J. Haydn
%%score [ ( 1 2 ) ( 3 4 ) ]
L:1/8
Q:1/4=60
M:4/4
K:Bb
V:1 treble nm="SOPRANO ALTO" snm="S."
V:2 treble 
V:3 bass nm="TENORE BASSO" snm="B."
V:4 bass 
V:1
!p!"^Adagio"!<(! d4 B2!<)! (dc) |!>(! (B2 A2)!>)! B2!mf! z2 | d4 (cB) (AG) |!<(! (GF) F2!<)! z4 | %4
w: A- ve Ma- *|ri- * a,|gra- ti- * a _|ple- * na,|
w: ||||
!f! f4 d2 B2 |!f! A4!mf! B4 | e4 (ed) (cd) |!>(! d2 c2!>)!!mf! z4 | c6 f2 | f3 =e e2 f2 | %10
w: Do- mi- nus|te- cum,|Do- mi- * nus *|te- cum,|be- ne-|dic- ta tu in|
w: |||||be- ne- dic- ta|
!f! g2 B2 (Bd) (cB) | A4 z2!ff! (FG) | A2 B2 c2 ^c2 | d4 d4 | (f4 =ed) (cB) | A2 F2!mf! c4 | %16
w: mu- li- e- * ri- *|bus, et _|be- ne- dic- tus|fruc- tus|ven- * * tris *|tu- i, Je-|
w: in mu- li- * ri- *|bus, * *|||* ven- * tris *||
"^rit." A4 z4 | z2!p! c2 c2 c2 | (c3 A) A2 z2 |!mf! z2 e4 e2 | (e3 c) c2 z2 | z2!f! A2 c2 e2 | %22
w: sus.|San- cta Ma-|ri- * a,|Ma- ter|De- * i,|o- ra pro|
w: ||||||
!f!!<(! g4!<)! f2 ff |!>(! f2 e2 d2!>)! z2 |!p! d4 z2 d2 | BBBB B2 G2 |"^-""^rit.""^-"!<(! F8!<)! | %27
w: no- bis pec- ca-|to- ri- bus,|nunc, nunc|et in ho- ra mor- tis|nos-|
w: |||||
!pp!!>(!!>(! !fermata!F8!>)!!>)! ||!p!!<(! d4 B2!<)! (dc) |!>(! (B2 A2) B2!>)!!mf! z2 | %30
w: trae.|A- ve Ma- *|ri- * a,|
w: |||
 d4 (cB) (AG) | (GF) F2 z4 | z2!f! B2 A2 F2 | d4 c2 z2 |!f! (B2 f2) f2 f2 | d4 e4 |!mf! G2 G2 z4 | %37
w: gra- ti- * a _|ple- * na,|Do- mi- nus|te- cum,|Do- * mi- nus|te- cum,|te- cum,|
w: |||||||
 c2 c2 z2!f! G2 | g4 fedc | B2 B2 c3 A | B2!f! d2 d2 d2 | (ed) d2 z4 | z2 d4 d2 | (ed) d2 z4 | %44
w: te- cum, be-|ne- dic- ta tu in|mu- li- e- ri-|bus, et be- ne-|dic- * tus|fruc- tus|ven- * tris|
w: |||||||
 z2 (G2 c2) e2 | (g4"^-" fe) (dc) |!p! (B2 d2"^-" c2"^-" A2) | B4!mf! z2 (d2 | c2) B2 z4 | %49
w: * * i,|Je- * * sus, *|Je- * * *|sus. San-|* cta|
w: |||||
 z4 z2 (f2 | e2) d2 z4 | z8 |!f! d4 d2 d2 | d2 e2 f2 g2 |!<(! B4!<)! c4 |!>(! d4!>)!!mf! z4 | %56
w: Ma-|* ter||o- ra pro|no- bis pec- ca-|to- ri-|bus,|
w: |||||||
 d4 d2 d2 | d2 e2 f2 g2 |!<(! (B4 A4)!<)! |!>(! B4!>)! z4 |!f!!<(! f8!<)! | d4 z4 |!p!!>(! c8!>)! | %63
w: nunc et in|ho- ra mor- tis|nos- *|trae.|A-|men,|a-|
w: |||||||
 !fermata!B8 |] %64
w: men.|
w: |
V:2
 F4 G2 G2 | (F2 E2) D2 x2 | B4 (AG) (FE) | (ED) D2 x4 | z8 | F4 F4 | F4 F2 F2 | F2 F2 x4 | %8
 z2 (A2 B2) c2 | B3 B B2 A2 | G2 G2 G2 G2 | F4 z4 | E2 E2 E2 F2 | F4 F4 | (d4 cB) (AG) | %15
 F2 F2 =E4 | F4 x4 | x2 A2 A2 A2 | (A3 F) F2 x2 | x2 c4 c2 | (c3 A) A2 x2 | z8 | G4 B2 BB | %23
 F2 F2 F2 x2 | F4 x2 F2 | GGGG G2 =E2 | (F2 _D2 C2 D2) | C8 || F4 G2 G2 | (F2 E2) D2 x2 | %30
 B4 (AG) (FE) | (ED) D2 x4 | z8 | z8 | F4 F2 A2 | B4 B4 | E2 E2 x4 | G2 G2 x2 G2 | G4 GGGG | %39
 F2 F2 F3 F | F2 B2 B2 B2 | (cB) B2 x4 | x2 B4 B2 | (cB) B2 x4 | G6 G2 | G6 G2 | F8 | F4 x2 (F2 | %48
 E2) D2 x4 | z8 | z8 | x8 | B4 B2 B2 | B2 B2 B2 B2 | F4 F4 | F4 x4 | F4 B2 B2 | B2 B2 B2 B2 | F8 | %59
 F4 x4 | A8 | B4 x4 | E8 | D8 |] %64
V:3
!p! D4 D2 E2 | (D2 C2) B,2!mf! z2 | B,4 B,2 B,2 | B,2 B,2 z4 | z8 |!f! C4!mf! D4 | %6
w: ||||||
w: ||||||
 C4 (CB,) (A,B,) | B,2 A,2 z4 |!mf!!mf! z8 | C3 C C2 C!f!C | C2 CC C2 C2 | C4 z2!ff! (F,G,) | %12
w: |||dic- ta tu in *|mu- li- * e- ri-|bus, * *|
w: ||||||
 F,2 G,2 A,2 A,2 | B,4 B,4 | z4 B,2 D2 | C2 A,2!mf! G,4 | A,4 z4 | z8 |!p! z2 C2 C2 C2 | %19
w: |||||||
w: |||||||
 (C3 A,) A,2 z2 |!mf! z2 E4 E2 | (E3 C) C2 z2 |!f! C4 B,2 B,B, | A,2 A,2 B,2 z2 |!p! B,4 z2 B,2 | %25
w: ||||||
w: ||||||
 DDDD =E2 B,2 | (A,2 B,2 A,2"^rit." B,2) |!pp! A,8 ||!p! D4 D2 E2 | (D2 C2) B,2!mf! z2 | %30
w: |||||
w: |||||
 B,4 B,2 B,2 | B,2 B,2 z4 | z8 | z2!f! B,2 A,2 F,2 |!f! D4 C4 | F4!mf! E4 | B,2 B,2 z4 | %37
w: |||||||
w: |||Do- mi- nus|te- cum,|||
 G,2 G,2 z2!f! C2 | C4 C2 EE | D2 DD E3 E | D2 z2 z4 |!f! z8 | z8 | z8 | z8 | %45
w: ||||||||
w: ||||||||
!f! (B,2 =B,2 C2)!p! E2 | (D2 F2 E2 C2) | D4 z4 | z4!mf! z2 D2 | C2 B,2 z2 (D2 | C2) B,2 z4 | z8 | %52
w: |||||||
w: |||||||
!f! F4 F2 F2 | F2 E2 D2 E2 | D4 A,4 | B,4!mf! z4 | F4 F2 F2 | F2 E2 D2 E2 | (D4 C4) | D4 z4 | %60
w: ||||||||
w: ||||||||
!f! C8 | B,4 z4 |!p! A,8 | B,8 |] %64
w: ||||
w: ||||
V:4
 B,,4 G,2 E,2 | F,4 B,,2 x2 | B,,4 B,,2 B,,2 | B,,2 B,,2 x4 | x8 | F,4 (D,2 B,,2) | %6
w: ||||||
w: ||||||
w: ||||||
 A,,4 B,,2 B,,2 | F,2 F,2 x4 | z2 (F,2 G,2) A,2 | G,3 G, G,2 F,2 | =E,2 E,2 E,2 E,2 | F,4 z4 | %12
w: ||||||
w: ||||||
w: ||||||
 F,2 G,2 A,2 F,2 | B,4 B,4 | B,,6 B,2 | C2 C2 C,4 | F,4 x4 | x8 | x2 A,2 A,2 A,2 | %19
w: |||||||
w: ||||||San- cta Ma-|
w: |||||||
 (A,3 F,) F,2 x2 | x2 C4 C2 | (C3 A,) A,2 x2 | E,4 D,2 D,D, | C,2 C,2 B,,2 x2 | B,4 x2 B,2 | %25
w: ||||||
w: ri- * a,|Ma- ter|De- * i,||||
w: ||||||
 C,C,C,C, C,2 C,2 | F,8 | !fermata!F,8 || B,,4 G,2 E,2 | F,4 B,,2 x2 | B,,4 B,,2 B,,2 | %31
w: ||||||
w: ||||||
w: ||||||
 B,,2 B,,2 x4 | x8 | z8 | z2 B,2 A,2 F,2 | _A,4 G,4 | E,2 E,2 x4 | E,2 E,2 x2 E,2 | E,4 E,2 E,E, | %39
w: ||||||||
w: ||||||||
w: |||Do- mi- nus|||* * be-|ne- dic- ta tu|
 F,2 F,F, F,3 F, | B,,2 x2 x4 | z2 (B,2 A,2) B,2 | (^F,G,) G,2 z4 | z2 (G,2 ^F,2) G,2 | %44
w: |||||
w: |||||
w: in mu- li- e- ri-|bus,|be- * ne-|dic- * tus|ven- * tris|
 (D,E,) E,2 z4 | E,6 E,2 | F,8 | B,,4 x4 | x4 x2 F,2 | E,2 D,2 z4 | z4 z2 (F,2 | E,2) D,2 z4 | %52
w: ||||||||
w: ||||||||
w: tu- * i,||||||||
 _A,4 A,2 A,2 | _A,2 G,2 F,2 E,2 | F,4 F,4 | B,,4 x4 | _A,4 A,2 A,2 | _A,2 G,2 F,2 E,2 | F,8 | %59
w: |||||||
w: |||||||
w: |||||||
 B,,4 x4 | F,8 | B,,4 x4 | F,8 | !fermata![B,,F,]8 |] %64
w: |||||
w: |||||
w: |||||

